; generated by PrusaSlicer 2.9.0 on 2025-02-25 at 13:09:00 UTC

; 

; external perimeters extrusion width = 0.42mm
; perimeters extrusion width = 0.44mm
; infill extrusion width = 0.44mm
; solid infill extrusion width = 0.44mm
; top infill extrusion width = 0.40mm
; first layer extrusion width = 0.42mm

; external perimeters extrusion width = 0.42mm
; perimeters extrusion width = 0.44mm
; infill extrusion width = 0.44mm
; solid infill extrusion width = 0.44mm
; top infill extrusion width = 0.40mm
; first layer extrusion width = 0.42mm

; external perimeters extrusion width = 0.42mm
; perimeters extrusion width = 0.44mm
; infill extrusion width = 0.44mm
; solid infill extrusion width = 0.44mm
; top infill extrusion width = 0.40mm
; first layer extrusion width = 0.42mm

; external perimeters extrusion width = 0.42mm
; perimeters extrusion width = 0.44mm
; infill extrusion width = 0.44mm
; solid infill extrusion width = 0.44mm
; top infill extrusion width = 0.40mm
; first layer extrusion width = 0.42mm

; external perimeters extrusion width = 0.42mm
; perimeters extrusion width = 0.44mm
; infill extrusion width = 0.44mm
; solid infill extrusion width = 0.44mm
; top infill extrusion width = 0.40mm
; first layer extrusion width = 0.42mm

; external perimeters extrusion width = 0.42mm
; perimeters extrusion width = 0.44mm
; infill extrusion width = 0.44mm
; solid infill extrusion width = 0.44mm
; top infill extrusion width = 0.40mm
; first layer extrusion width = 0.42mm

; external perimeters extrusion width = 0.42mm
; perimeters extrusion width = 0.44mm
; infill extrusion width = 0.44mm
; solid infill extrusion width = 0.44mm
; top infill extrusion width = 0.40mm
; first layer extrusion width = 0.42mm

; external perimeters extrusion width = 0.42mm
; perimeters extrusion width = 0.44mm
; infill extrusion width = 0.44mm
; solid infill extrusion width = 0.44mm
; top infill extrusion width = 0.40mm
; first layer extrusion width = 0.42mm

; external perimeters extrusion width = 0.42mm
; perimeters extrusion width = 0.44mm
; infill extrusion width = 0.44mm
; solid infill extrusion width = 0.44mm
; top infill extrusion width = 0.40mm
; first layer extrusion width = 0.42mm

; external perimeters extrusion width = 0.42mm
; perimeters extrusion width = 0.44mm
; infill extrusion width = 0.44mm
; solid infill extrusion width = 0.44mm
; top infill extrusion width = 0.40mm
; first layer extrusion width = 0.42mm

; external perimeters extrusion width = 0.42mm
; perimeters extrusion width = 0.44mm
; infill extrusion width = 0.44mm
; solid infill extrusion width = 0.44mm
; top infill extrusion width = 0.40mm
; first layer extrusion width = 0.42mm

; external perimeters extrusion width = 0.42mm
; perimeters extrusion width = 0.44mm
; infill extrusion width = 0.44mm
; solid infill extrusion width = 0.44mm
; top infill extrusion width = 0.40mm
; first layer extrusion width = 0.42mm

; external perimeters extrusion width = 0.42mm
; perimeters extrusion width = 0.44mm
; infill extrusion width = 0.44mm
; solid infill extrusion width = 0.44mm
; top infill extrusion width = 0.40mm
; first layer extrusion width = 0.42mm

; external perimeters extrusion width = 0.42mm
; perimeters extrusion width = 0.44mm
; infill extrusion width = 0.44mm
; solid infill extrusion width = 0.44mm
; top infill extrusion width = 0.40mm
; first layer extrusion width = 0.42mm

; external perimeters extrusion width = 0.42mm
; perimeters extrusion width = 0.44mm
; infill extrusion width = 0.44mm
; solid infill extrusion width = 0.44mm
; top infill extrusion width = 0.40mm
; first layer extrusion width = 0.42mm

; external perimeters extrusion width = 0.42mm
; perimeters extrusion width = 0.44mm
; infill extrusion width = 0.44mm
; solid infill extrusion width = 0.44mm
; top infill extrusion width = 0.40mm
; first layer extrusion width = 0.42mm

; external perimeters extrusion width = 0.42mm
; perimeters extrusion width = 0.44mm
; infill extrusion width = 0.44mm
; solid infill extrusion width = 0.44mm
; top infill extrusion width = 0.40mm
; first layer extrusion width = 0.42mm

; external perimeters extrusion width = 0.42mm
; perimeters extrusion width = 0.44mm
; infill extrusion width = 0.44mm
; solid infill extrusion width = 0.44mm
; top infill extrusion width = 0.40mm
; first layer extrusion width = 0.42mm

; external perimeters extrusion width = 0.42mm
; perimeters extrusion width = 0.44mm
; infill extrusion width = 0.44mm
; solid infill extrusion width = 0.44mm
; top infill extrusion width = 0.40mm
; first layer extrusion width = 0.42mm

; external perimeters extrusion width = 0.42mm
; perimeters extrusion width = 0.44mm
; infill extrusion width = 0.44mm
; solid infill extrusion width = 0.44mm
; top infill extrusion width = 0.40mm
; first layer extrusion width = 0.42mm

; external perimeters extrusion width = 0.42mm
; perimeters extrusion width = 0.44mm
; infill extrusion width = 0.44mm
; solid infill extrusion width = 0.44mm
; top infill extrusion width = 0.40mm
; first layer extrusion width = 0.42mm

; external perimeters extrusion width = 0.42mm
; perimeters extrusion width = 0.44mm
; infill extrusion width = 0.44mm
; solid infill extrusion width = 0.44mm
; top infill extrusion width = 0.40mm
; first layer extrusion width = 0.42mm

; external perimeters extrusion width = 0.42mm
; perimeters extrusion width = 0.44mm
; infill extrusion width = 0.44mm
; solid infill extrusion width = 0.44mm
; top infill extrusion width = 0.40mm
; first layer extrusion width = 0.42mm

; external perimeters extrusion width = 0.42mm
; perimeters extrusion width = 0.44mm
; infill extrusion width = 0.44mm
; solid infill extrusion width = 0.44mm
; top infill extrusion width = 0.40mm
; first layer extrusion width = 0.42mm

; external perimeters extrusion width = 0.42mm
; perimeters extrusion width = 0.44mm
; infill extrusion width = 0.44mm
; solid infill extrusion width = 0.44mm
; top infill extrusion width = 0.40mm
; first layer extrusion width = 0.42mm

; external perimeters extrusion width = 0.42mm
; perimeters extrusion width = 0.44mm
; infill extrusion width = 0.44mm
; solid infill extrusion width = 0.44mm
; top infill extrusion width = 0.40mm
; first layer extrusion width = 0.42mm

; external perimeters extrusion width = 0.42mm
; perimeters extrusion width = 0.44mm
; infill extrusion width = 0.44mm
; solid infill extrusion width = 0.44mm
; top infill extrusion width = 0.40mm
; first layer extrusion width = 0.42mm

; external perimeters extrusion width = 0.42mm
; perimeters extrusion width = 0.44mm
; infill extrusion width = 0.44mm
; solid infill extrusion width = 0.44mm
; top infill extrusion width = 0.40mm
; first layer extrusion width = 0.42mm

; external perimeters extrusion width = 0.42mm
; perimeters extrusion width = 0.44mm
; infill extrusion width = 0.44mm
; solid infill extrusion width = 0.44mm
; top infill extrusion width = 0.40mm
; first layer extrusion width = 0.42mm

; external perimeters extrusion width = 0.42mm
; perimeters extrusion width = 0.44mm
; infill extrusion width = 0.44mm
; solid infill extrusion width = 0.44mm
; top infill extrusion width = 0.40mm
; first layer extrusion width = 0.42mm

; external perimeters extrusion width = 0.42mm
; perimeters extrusion width = 0.44mm
; infill extrusion width = 0.44mm
; solid infill extrusion width = 0.44mm
; top infill extrusion width = 0.40mm
; first layer extrusion width = 0.42mm

; external perimeters extrusion width = 0.42mm
; perimeters extrusion width = 0.44mm
; infill extrusion width = 0.44mm
; solid infill extrusion width = 0.44mm
; top infill extrusion width = 0.40mm
; first layer extrusion width = 0.42mm

M201 X500 Y500 Z100 E5000 ; sets maximum accelerations, mm/sec^2
M203 X500 Y500 Z10 E60 ; sets maximum feedrates, mm / sec
M204 S500 T1000 ; sets acceleration (S) and retract acceleration (R), mm/sec^2
M205 X8.00 Y8.00 Z0.40 E5.00 ; sets the jerk limits, mm/sec
M205 S0 T0 ; sets the minimum extruding and travel feed rate, mm/sec

; printing object 1x1_Piece.stl id:2 copy 0
; stop printing object 1x1_Piece.stl id:2 copy 0
; printing object 1x1_Piece.stl id:8 copy 0
; stop printing object 1x1_Piece.stl id:8 copy 0
; printing object 1x1_Piece.stl id:0 copy 0
; stop printing object 1x1_Piece.stl id:0 copy 0
; printing object 1x1_Piece.stl id:1 copy 0
; stop printing object 1x1_Piece.stl id:1 copy 0
; printing object 1x1_Piece.stl id:3 copy 0
; stop printing object 1x1_Piece.stl id:3 copy 0
; printing object 1x1_Piece.stl id:24 copy 0
; stop printing object 1x1_Piece.stl id:24 copy 0
; printing object 1x1_Piece.stl id:17 copy 0
; stop printing object 1x1_Piece.stl id:17 copy 0
; printing object 1x1_Piece.stl id:20 copy 0
; stop printing object 1x1_Piece.stl id:20 copy 0
; printing object 1x1_Piece.stl id:25 copy 0
; stop printing object 1x1_Piece.stl id:25 copy 0
; printing object 1x1_Piece.stl id:31 copy 0
; stop printing object 1x1_Piece.stl id:31 copy 0
; printing object 1x1_Piece.stl id:28 copy 0
; stop printing object 1x1_Piece.stl id:28 copy 0
; printing object 1x1_Piece.stl id:16 copy 0
; stop printing object 1x1_Piece.stl id:16 copy 0
; printing object 1x1_Piece.stl id:18 copy 0
; stop printing object 1x1_Piece.stl id:18 copy 0
; printing object 1x1_Piece.stl id:21 copy 0
; stop printing object 1x1_Piece.stl id:21 copy 0
; printing object 1x1_Piece.stl id:22 copy 0
; stop printing object 1x1_Piece.stl id:22 copy 0
; printing object 1x1_Piece.stl id:23 copy 0
; stop printing object 1x1_Piece.stl id:23 copy 0
; printing object 1x1_Piece.stl id:26 copy 0
; stop printing object 1x1_Piece.stl id:26 copy 0
; printing object 1x1_Piece.stl id:27 copy 0
; stop printing object 1x1_Piece.stl id:27 copy 0
; printing object 1x1_Piece.stl id:29 copy 0
; stop printing object 1x1_Piece.stl id:29 copy 0
; printing object 1x1_Piece.stl id:19 copy 0
; stop printing object 1x1_Piece.stl id:19 copy 0
; printing object 1x1_Piece.stl id:30 copy 0
; stop printing object 1x1_Piece.stl id:30 copy 0
; printing object 1x1_Piece.stl id:9 copy 0
; stop printing object 1x1_Piece.stl id:9 copy 0
; printing object 1x1_Piece.stl id:11 copy 0
; stop printing object 1x1_Piece.stl id:11 copy 0
; printing object 1x1_Piece.stl id:13 copy 0
; stop printing object 1x1_Piece.stl id:13 copy 0
; printing object 1x1_Piece.stl id:12 copy 0
; stop printing object 1x1_Piece.stl id:12 copy 0
; printing object 1x1_Piece.stl id:10 copy 0
; stop printing object 1x1_Piece.stl id:10 copy 0
; printing object 1x1_Piece.stl id:14 copy 0
; stop printing object 1x1_Piece.stl id:14 copy 0
; printing object 1x1_Piece.stl id:15 copy 0
; stop printing object 1x1_Piece.stl id:15 copy 0
; printing object 1x1_Piece.stl id:4 copy 0
; stop printing object 1x1_Piece.stl id:4 copy 0
; printing object 1x1_Piece.stl id:5 copy 0
; stop printing object 1x1_Piece.stl id:5 copy 0
; printing object 1x1_Piece.stl id:7 copy 0
; stop printing object 1x1_Piece.stl id:7 copy 0
; printing object 1x1_Piece.stl id:6 copy 0
; stop printing object 1x1_Piece.stl id:6 copy 0

;TYPE:Custom
G90 ; use absolute coordinates
M83 ; extruder relative mode
M104 S160 ; set temporary nozzle temp to prevent oozing during homing
M140 S80 ; set final bed temp
G4 S30 ; allow partial nozzle warmup
G28 ; home all axis
G1 Z50 F240
G1 X2.0 Y10 F3000
M104 S240 ; set final nozzle temp
M190 S80 ; wait for bed temp to stabilize
M109 S240 ; wait for nozzle temp to stabilize
G1 Z0.28 F240
G92 E0
G1 X2.0 Y140 E10 F1500 ; prime the nozzle
G1 X2.3 Y140 F5000
G92 E0
G1 X2.3 Y10 E10 F1200 ; prime the nozzle
G92 E0
G21 ; set units to millimeters
G90 ; use absolute coordinates
M83 ; use relative distances for extrusion
; Filament gcode
M107
;LAYER_CHANGE
;Z:0.2
;HEIGHT:0.2
G1 E-5 F3600
G1 Z.2 F9000
G1 X51.847 Y86.193
G1 Z.2
G1 E5 F2400
M204 S500
;TYPE:Skirt/Brim
;WIDTH:0.42
G1 F1200
G1 X53.557 Y85.695 E.05584
G1 X63.313 Y85.695 E.30589
G1 X124.294 Y85.797 E1.91202
G1 X169.779 Y86.329 E1.42625
G1 X171.308 Y86.741 E.04965
G1 X172.451 Y87.84 E.04972
G1 X172.927 Y89.457 E.05285
G1 X173.437 Y116.616 E.8517
G1 X173.394 Y139.728 E.72466
G1 X172.995 Y141.262 E.0497
G1 X171.907 Y142.414 E.04968
G1 X170.231 Y142.906 E.05477
G1 X155.939 Y143.022 E.44813
G1 X85.17 Y142.92 E2.21891
G1 X54.663 Y142.542 E.9566
G1 X53.133 Y142.129 E.04969
G1 X51.991 Y141.031 E.04967
G1 X51.517 Y139.502 E.05019
G1 X50.879 Y125.793 E.4303
G1 X50.369 Y98.693 E.84985
G1 X50.369 Y88.883 E.30759
G1 X50.763 Y87.349 E.04966
G1 X51.806 Y86.237 E.0478
G1 E-3.5 F3600
;WIPE_START
G1 F7200
G1 X51.847 Y86.193 E-.02857
G1 X53.557 Y85.695 E-.84599
G1 X54.874 Y85.695 E-.62544
;WIPE_END
; printing object 1x1_Piece.stl id:16 copy 0
G1 X54.622 Y89.948 F9000
G1 E5 F2400
;TYPE:Perimeter
;WIDTH:0.419999
G1 F1200
G1 X62.243 Y89.948 E.23895
G1 X62.243 Y93.758 E.11946
G1 X62.243 Y97.569 E.11949
G1 X54.622 Y97.569 E.23895
G1 X54.622 Y90.008 E.23707
G1 X54.622 Y90.008 F9000
G1 X54.244 Y89.571
G1 F1200
G1 X62.62 Y89.571 E.26262
G1 X62.62 Y93.758 E.13128
G1 X62.62 Y97.946 E.13131
G1 X54.244 Y97.946 E.26262
G1 X54.244 Y89.631 E.26071
G1 X54.244 Y89.631 F9000
G1 X53.867 Y89.193
;TYPE:External perimeter
G1 F1200
G1 X62.997 Y89.193 E.28626
G1 X62.997 Y93.758 E.14313
G1 X62.997 Y98.323 E.14313
G1 X53.867 Y98.323 E.28626
G1 X53.867 Y89.253 E.28438
G1 E-3.5 F3600
;WIPE_START
G1 F7200
G1 X53.867 Y89.193 E-.0285
G1 X56.965 Y89.193 E-1.4715
;WIPE_END
G1 X62.123 Y90.855 F9000
G1 E5 F2400
;TYPE:Solid infill
;WIDTH:0.431465
G1 F1200
G1 X61.506 Y90.238 E.02819
G1 X60.956 Y90.238 E.01777
G1 X61.953 Y91.235 E.04555
G1 X61.953 Y91.784 E.01774
G1 X60.407 Y90.238 E.07064
G1 X59.857 Y90.238 E.01777
G1 X61.953 Y92.334 E.09577
G1 X61.953 Y92.883 E.01774
G1 X59.308 Y90.238 E.12085
G1 X58.758 Y90.238 E.01777
G1 X61.953 Y93.433 E.14598
G1 X61.953 Y93.982 E.01774
G1 X58.209 Y90.238 E.17106
G1 X57.659 Y90.238 E.01777
G1 X61.953 Y94.532 E.19619
G1 X61.953 Y95.081 E.01774
G1 X57.11 Y90.238 E.22128
G1 X56.56 Y90.238 E.01777
G1 X61.953 Y95.631 E.24641
G1 X61.953 Y96.18 E.01774
G1 X56.011 Y90.238 E.27149
G1 X55.461 Y90.238 E.01777
G1 X61.953 Y96.73 E.29662
G1 X61.953 Y97.279 E.01774
G1 X54.912 Y90.238 E.3217
G1 X54.912 Y90.788 E.01777
G1 X61.403 Y97.279 E.29657
G1 X60.854 Y97.279 E.01774
G1 X54.912 Y91.337 E.27149
G1 X54.912 Y91.886 E.01774
G1 X60.304 Y97.279 E.24638
G1 X59.755 Y97.279 E.01774
G1 X54.912 Y92.436 E.22128
G1 X54.912 Y92.985 E.01774
G1 X59.205 Y97.279 E.19617
G1 X58.656 Y97.279 E.01774
G1 X54.912 Y93.535 E.17106
G1 X54.912 Y94.084 E.01774
G1 X58.106 Y97.279 E.14596
G1 X57.557 Y97.279 E.01774
G1 X54.912 Y94.634 E.12085
G1 X54.912 Y95.183 E.01774
G1 X57.007 Y97.279 E.09574
G1 X56.458 Y97.279 E.01774
G1 X54.912 Y95.733 E.07064
G1 X54.912 Y96.282 E.01774
G1 X55.909 Y97.279 E.04555
G1 X55.359 Y97.279 E.01777
G1 X54.742 Y96.662 E.02819
G1 E-3.5 F3600
;WIPE_START
G1 F7200
G1 X55.359 Y97.279 E-.41447
G1 X55.909 Y97.279 E-.26125
G1 X54.912 Y96.282 E-.66974
G1 X54.912 Y95.957 E-.15454
;WIPE_END
; stop printing object 1x1_Piece.stl id:16 copy 0
; printing object 1x1_Piece.stl id:19 copy 0
G1 X55.257 Y103.568 F9000
G1 E5 F2400
;TYPE:Perimeter
;WIDTH:0.419999
G1 F1200
G1 X62.879 Y103.568 E.23898
G1 X62.879 Y107.379 E.11949
G1 X62.879 Y111.19 E.11949
G1 X55.257 Y111.19 E.23898
G1 X55.257 Y103.628 E.2371
G1 X55.257 Y103.628 F9000
G1 X54.88 Y103.191
G1 F1200
G1 X63.256 Y103.191 E.26262
G1 X63.256 Y107.379 E.13131
G1 X63.256 Y111.567 E.13131
G1 X54.88 Y111.567 E.26262
G1 X54.88 Y103.251 E.26074
G1 X54.88 Y103.251 F9000
G1 X54.503 Y102.814
;TYPE:External perimeter
G1 F1200
G1 X63.633 Y102.814 E.28626
G1 X63.633 Y107.379 E.14313
G1 X63.633 Y111.944 E.14313
G1 X54.503 Y111.944 E.28626
G1 X54.503 Y102.874 E.28438
G1 E-3.5 F3600
;WIPE_START
G1 F7200
G1 X54.503 Y102.814 E-.0285
G1 X57.601 Y102.814 E-1.4715
;WIPE_END
G1 X62.758 Y104.476 F9000
G1 E5 F2400
;TYPE:Solid infill
;WIDTH:0.431465
G1 F1200
G1 X62.141 Y103.859 E.02819
G1 X61.592 Y103.859 E.01774
G1 X62.588 Y104.855 E.04551
G1 X62.588 Y105.405 E.01777
G1 X61.042 Y103.859 E.07064
G1 X60.493 Y103.859 E.01774
G1 X62.588 Y105.954 E.09572
