; generated by PrusaSlicer 2.9.0 on 2025-02-25 at 13:09:46 UTC

; 

; external perimeters extrusion width = 0.42mm
; perimeters extrusion width = 0.44mm
; infill extrusion width = 0.44mm
; solid infill extrusion width = 0.44mm
; top infill extrusion width = 0.40mm
; first layer extrusion width = 0.42mm

; external perimeters extrusion width = 0.42mm
; perimeters extrusion width = 0.44mm
; infill extrusion width = 0.44mm
; solid infill extrusion width = 0.44mm
; top infill extrusion width = 0.40mm
; first layer extrusion width = 0.42mm

; external perimeters extrusion width = 0.42mm
; perimeters extrusion width = 0.44mm
; infill extrusion width = 0.44mm
; solid infill extrusion width = 0.44mm
; top infill extrusion width = 0.40mm
; first layer extrusion width = 0.42mm

; external perimeters extrusion width = 0.42mm
; perimeters extrusion width = 0.44mm
; infill extrusion width = 0.44mm
; solid infill extrusion width = 0.44mm
; top infill extrusion width = 0.40mm
; first layer extrusion width = 0.42mm

; external perimeters extrusion width = 0.42mm
; perimeters extrusion width = 0.44mm
; infill extrusion width = 0.44mm
; solid infill extrusion width = 0.44mm
; top infill extrusion width = 0.40mm
; first layer extrusion width = 0.42mm

; external perimeters extrusion width = 0.42mm
; perimeters extrusion width = 0.44mm
; infill extrusion width = 0.44mm
; solid infill extrusion width = 0.44mm
; top infill extrusion width = 0.40mm
; first layer extrusion width = 0.42mm

; external perimeters extrusion width = 0.42mm
; perimeters extrusion width = 0.44mm
; infill extrusion width = 0.44mm
; solid infill extrusion width = 0.44mm
; top infill extrusion width = 0.40mm
; first layer extrusion width = 0.42mm

; external perimeters extrusion width = 0.42mm
; perimeters extrusion width = 0.44mm
; infill extrusion width = 0.44mm
; solid infill extrusion width = 0.44mm
; top infill extrusion width = 0.40mm
; first layer extrusion width = 0.42mm

; external perimeters extrusion width = 0.42mm
; perimeters extrusion width = 0.44mm
; infill extrusion width = 0.44mm
; solid infill extrusion width = 0.44mm
; top infill extrusion width = 0.40mm
; first layer extrusion width = 0.42mm

; external perimeters extrusion width = 0.42mm
; perimeters extrusion width = 0.44mm
; infill extrusion width = 0.44mm
; solid infill extrusion width = 0.44mm
; top infill extrusion width = 0.40mm
; first layer extrusion width = 0.42mm

; external perimeters extrusion width = 0.42mm
; perimeters extrusion width = 0.44mm
; infill extrusion width = 0.44mm
; solid infill extrusion width = 0.44mm
; top infill extrusion width = 0.40mm
; first layer extrusion width = 0.42mm

; external perimeters extrusion width = 0.42mm
; perimeters extrusion width = 0.44mm
; infill extrusion width = 0.44mm
; solid infill extrusion width = 0.44mm
; top infill extrusion width = 0.40mm
; first layer extrusion width = 0.42mm

; external perimeters extrusion width = 0.42mm
; perimeters extrusion width = 0.44mm
; infill extrusion width = 0.44mm
; solid infill extrusion width = 0.44mm
; top infill extrusion width = 0.40mm
; first layer extrusion width = 0.42mm

; external perimeters extrusion width = 0.42mm
; perimeters extrusion width = 0.44mm
; infill extrusion width = 0.44mm
; solid infill extrusion width = 0.44mm
; top infill extrusion width = 0.40mm
; first layer extrusion width = 0.42mm

; external perimeters extrusion width = 0.42mm
; perimeters extrusion width = 0.44mm
; infill extrusion width = 0.44mm
; solid infill extrusion width = 0.44mm
; top infill extrusion width = 0.40mm
; first layer extrusion width = 0.42mm

; external perimeters extrusion width = 0.42mm
; perimeters extrusion width = 0.44mm
; infill extrusion width = 0.44mm
; solid infill extrusion width = 0.44mm
; top infill extrusion width = 0.40mm
; first layer extrusion width = 0.42mm

; external perimeters extrusion width = 0.42mm
; perimeters extrusion width = 0.44mm
; infill extrusion width = 0.44mm
; solid infill extrusion width = 0.44mm
; top infill extrusion width = 0.40mm
; first layer extrusion width = 0.42mm

; external perimeters extrusion width = 0.42mm
; perimeters extrusion width = 0.44mm
; infill extrusion width = 0.44mm
; solid infill extrusion width = 0.44mm
; top infill extrusion width = 0.40mm
; first layer extrusion width = 0.42mm

; external perimeters extrusion width = 0.42mm
; perimeters extrusion width = 0.44mm
; infill extrusion width = 0.44mm
; solid infill extrusion width = 0.44mm
; top infill extrusion width = 0.40mm
; first layer extrusion width = 0.42mm

; external perimeters extrusion width = 0.42mm
; perimeters extrusion width = 0.44mm
; infill extrusion width = 0.44mm
; solid infill extrusion width = 0.44mm
; top infill extrusion width = 0.40mm
; first layer extrusion width = 0.42mm

; external perimeters extrusion width = 0.42mm
; perimeters extrusion width = 0.44mm
; infill extrusion width = 0.44mm
; solid infill extrusion width = 0.44mm
; top infill extrusion width = 0.40mm
; first layer extrusion width = 0.42mm

; external perimeters extrusion width = 0.42mm
; perimeters extrusion width = 0.44mm
; infill extrusion width = 0.44mm
; solid infill extrusion width = 0.44mm
; top infill extrusion width = 0.40mm
; first layer extrusion width = 0.42mm

; external perimeters extrusion width = 0.42mm
; perimeters extrusion width = 0.44mm
; infill extrusion width = 0.44mm
; solid infill extrusion width = 0.44mm
; top infill extrusion width = 0.40mm
; first layer extrusion width = 0.42mm

; external perimeters extrusion width = 0.42mm
; perimeters extrusion width = 0.44mm
; infill extrusion width = 0.44mm
; solid infill extrusion width = 0.44mm
; top infill extrusion width = 0.40mm
; first layer extrusion width = 0.42mm

; external perimeters extrusion width = 0.42mm
; perimeters extrusion width = 0.44mm
; infill extrusion width = 0.44mm
; solid infill extrusion width = 0.44mm
; top infill extrusion width = 0.40mm
; first layer extrusion width = 0.42mm

; external perimeters extrusion width = 0.42mm
; perimeters extrusion width = 0.44mm
; infill extrusion width = 0.44mm
; solid infill extrusion width = 0.44mm
; top infill extrusion width = 0.40mm
; first layer extrusion width = 0.42mm

; external perimeters extrusion width = 0.42mm
; perimeters extrusion width = 0.44mm
; infill extrusion width = 0.44mm
; solid infill extrusion width = 0.44mm
; top infill extrusion width = 0.40mm
; first layer extrusion width = 0.42mm

; external perimeters extrusion width = 0.42mm
; perimeters extrusion width = 0.44mm
; infill extrusion width = 0.44mm
; solid infill extrusion width = 0.44mm
; top infill extrusion width = 0.40mm
; first layer extrusion width = 0.42mm

; external perimeters extrusion width = 0.42mm
; perimeters extrusion width = 0.44mm
; infill extrusion width = 0.44mm
; solid infill extrusion width = 0.44mm
; top infill extrusion width = 0.40mm
; first layer extrusion width = 0.42mm

; external perimeters extrusion width = 0.42mm
; perimeters extrusion width = 0.44mm
; infill extrusion width = 0.44mm
; solid infill extrusion width = 0.44mm
; top infill extrusion width = 0.40mm
; first layer extrusion width = 0.42mm

; external perimeters extrusion width = 0.42mm
; perimeters extrusion width = 0.44mm
; infill extrusion width = 0.44mm
; solid infill extrusion width = 0.44mm
; top infill extrusion width = 0.40mm
; first layer extrusion width = 0.42mm

; external perimeters extrusion width = 0.42mm
; perimeters extrusion width = 0.44mm
; infill extrusion width = 0.44mm
; solid infill extrusion width = 0.44mm
; top infill extrusion width = 0.40mm
; first layer extrusion width = 0.42mm

; external perimeters extrusion width = 0.42mm
; perimeters extrusion width = 0.44mm
; infill extrusion width = 0.44mm
; solid infill extrusion width = 0.44mm
; top infill extrusion width = 0.40mm
; first layer extrusion width = 0.42mm

; external perimeters extrusion width = 0.42mm
; perimeters extrusion width = 0.44mm
; infill extrusion width = 0.44mm
; solid infill extrusion width = 0.44mm
; top infill extrusion width = 0.40mm
; first layer extrusion width = 0.42mm

; external perimeters extrusion width = 0.42mm
; perimeters extrusion width = 0.44mm
; infill extrusion width = 0.44mm
; solid infill extrusion width = 0.44mm
; top infill extrusion width = 0.40mm
; first layer extrusion width = 0.42mm

; external perimeters extrusion width = 0.42mm
; perimeters extrusion width = 0.44mm
; infill extrusion width = 0.44mm
; solid infill extrusion width = 0.44mm
; top infill extrusion width = 0.40mm
; first layer extrusion width = 0.42mm

; external perimeters extrusion width = 0.42mm
; perimeters extrusion width = 0.44mm
; infill extrusion width = 0.44mm
; solid infill extrusion width = 0.44mm
; top infill extrusion width = 0.40mm
; first layer extrusion width = 0.42mm

; external perimeters extrusion width = 0.42mm
; perimeters extrusion width = 0.44mm
; infill extrusion width = 0.44mm
; solid infill extrusion width = 0.44mm
; top infill extrusion width = 0.40mm
; first layer extrusion width = 0.42mm

M201 X500 Y500 Z100 E5000 ; sets maximum accelerations, mm/sec^2
M203 X500 Y500 Z10 E60 ; sets maximum feedrates, mm / sec
M204 S500 T1000 ; sets acceleration (S) and retract acceleration (R), mm/sec^2
M205 X8.00 Y8.00 Z0.40 E5.00 ; sets the jerk limits, mm/sec
M205 S0 T0 ; sets the minimum extruding and travel feed rate, mm/sec

; printing object 1x1_Piece.stl id:2 copy 0
; stop printing object 1x1_Piece.stl id:2 copy 0
; printing object 1x1_Piece.stl id:8 copy 0
; stop printing object 1x1_Piece.stl id:8 copy 0
; printing object 1x1_Piece.stl id:0 copy 0
; stop printing object 1x1_Piece.stl id:0 copy 0
; printing object 1x1_Piece.stl id:1 copy 0
; stop printing object 1x1_Piece.stl id:1 copy 0
; printing object 1x1_Piece.stl id:3 copy 0
; stop printing object 1x1_Piece.stl id:3 copy 0
; printing object 1x1_Piece.stl id:24 copy 0
; stop printing object 1x1_Piece.stl id:24 copy 0
; printing object 1x1_Piece.stl id:17 copy 0
; stop printing object 1x1_Piece.stl id:17 copy 0
; printing object 1x1_Piece.stl id:20 copy 0
; stop printing object 1x1_Piece.stl id:20 copy 0
; printing object 1x1_Piece.stl id:25 copy 0
; stop printing object 1x1_Piece.stl id:25 copy 0
; printing object 1x1_Piece.stl id:31 copy 0
; stop printing object 1x1_Piece.stl id:31 copy 0
; printing object 1x1_Piece.stl id:28 copy 0
; stop printing object 1x1_Piece.stl id:28 copy 0
; printing object 1x1_Piece.stl id:16 copy 0
; stop printing object 1x1_Piece.stl id:16 copy 0
; printing object 1x1_Piece.stl id:18 copy 0
; stop printing object 1x1_Piece.stl id:18 copy 0
; printing object 1x1_Piece.stl id:21 copy 0
; stop printing object 1x1_Piece.stl id:21 copy 0
; printing object 1x1_Piece.stl id:22 copy 0
; stop printing object 1x1_Piece.stl id:22 copy 0
; printing object 1x1_Piece.stl id:23 copy 0
; stop printing object 1x1_Piece.stl id:23 copy 0
; printing object 1x1_Piece.stl id:26 copy 0
; stop printing object 1x1_Piece.stl id:26 copy 0
; printing object 1x1_Piece.stl id:27 copy 0
; stop printing object 1x1_Piece.stl id:27 copy 0
; printing object 1x1_Piece.stl id:29 copy 0
; stop printing object 1x1_Piece.stl id:29 copy 0
; printing object 1x1_Piece.stl id:19 copy 0
; stop printing object 1x1_Piece.stl id:19 copy 0
; printing object 1x1_Piece.stl id:30 copy 0
; stop printing object 1x1_Piece.stl id:30 copy 0
; printing object 1x1_Piece.stl id:9 copy 0
; stop printing object 1x1_Piece.stl id:9 copy 0
; printing object 1x1_Piece.stl id:11 copy 0
; stop printing object 1x1_Piece.stl id:11 copy 0
; printing object 1x1_Piece.stl id:13 copy 0
; stop printing object 1x1_Piece.stl id:13 copy 0
; printing object 1x1_Piece.stl id:33 copy 0
; stop printing object 1x1_Piece.stl id:33 copy 0
; printing object 1x1_Piece.stl id:32 copy 0
; stop printing object 1x1_Piece.stl id:32 copy 0
; printing object 1x1_Piece.stl id:12 copy 0
; stop printing object 1x1_Piece.stl id:12 copy 0
; printing object 1x1_Piece.stl id:34 copy 0
; stop printing object 1x1_Piece.stl id:34 copy 0
; printing object 1x1_Piece.stl id:35 copy 0
; stop printing object 1x1_Piece.stl id:35 copy 0
; printing object 1x1_Piece.stl id:10 copy 0
; stop printing object 1x1_Piece.stl id:10 copy 0
; printing object 1x1_Piece.stl id:14 copy 0
; stop printing object 1x1_Piece.stl id:14 copy 0
; printing object 1x1_Piece.stl id:15 copy 0
; stop printing object 1x1_Piece.stl id:15 copy 0
; printing object 1x1_Piece.stl id:4 copy 0
; stop printing object 1x1_Piece.stl id:4 copy 0
; printing object 1x1_Piece.stl id:5 copy 0
; stop printing object 1x1_Piece.stl id:5 copy 0
; printing object 1x1_Piece.stl id:7 copy 0
; stop printing object 1x1_Piece.stl id:7 copy 0
; printing object 1x1_Piece.stl id:6 copy 0
; stop printing object 1x1_Piece.stl id:6 copy 0
; printing object 1x1_Piece.stl id:37 copy 0
; stop printing object 1x1_Piece.stl id:37 copy 0
; printing object 1x1_Piece.stl id:36 copy 0
; stop printing object 1x1_Piece.stl id:36 copy 0

;TYPE:Custom
G90 ; use absolute coordinates
M83 ; extruder relative mode
M104 S160 ; set temporary nozzle temp to prevent oozing during homing
M140 S80 ; set final bed temp
G4 S30 ; allow partial nozzle warmup
G28 ; home all axis
G1 Z50 F240
G1 X2.0 Y10 F3000
M104 S240 ; set final nozzle temp
M190 S80 ; wait for bed temp to stabilize
M109 S240 ; wait for nozzle temp to stabilize
G1 Z0.28 F240
G92 E0
G1 X2.0 Y140 E10 F1500 ; prime the nozzle
G1 X2.3 Y140 F5000
G92 E0
G1 X2.3 Y10 E10 F1200 ; prime the nozzle
G92 E0
G21 ; set units to millimeters
G90 ; use absolute coordinates
M83 ; use relative distances for extrusion
; Filament gcode
M107
;LAYER_CHANGE
;Z:0.2
;HEIGHT:0.2
G1 E-5 F3600
G1 Z.2 F9000
G1 X61.024 Y81.365
G1 Z.2
G1 E5 F2400
M204 S500
;TYPE:Skirt/Brim
;WIDTH:0.42
G1 F1200
G1 X70.542 Y74.227 E.37303
G1 X72.455 Y73.589 E.06323
G1 X82.21 Y73.589 E.30586
G1 X143.164 Y73.69 E1.91117
G1 X158.162 Y73.844 E.47028
G1 X160.221 Y74.626 E.06906
G1 X174.586 Y87.11 E.59672
G1 X175.487 Y88.414 E.0497
G1 X175.683 Y89.457 E.03327
G1 X176.193 Y116.617 E.85173
G1 X176.149 Y139.729 E.72466
G1 X175.751 Y141.262 E.04966
G1 X174.663 Y142.414 E.04968
G1 X172.987 Y142.907 E.05478
G1 X158.695 Y143.022 E.44813
G1 X87.926 Y142.92 E2.21891
G1 X57.418 Y142.542 E.95663
G1 X55.889 Y142.13 E.04965
G1 X54.746 Y141.031 E.04972
G1 X54.273 Y139.503 E.05015
G1 X53.637 Y125.882 E.42754
G1 X53.125 Y98.634 E.85449
G1 X53.125 Y88.884 E.3057
G1 X53.518 Y87.349 E.04968
G1 X54.4 Y86.333 E.04218
G1 X60.976 Y81.401 E.25773
G1 E-3.5 F3600
;WIPE_START
G1 F7200
G1 X61.024 Y81.365 E-.0285
G1 X63.502 Y79.506 E-1.4715
;WIPE_END
; printing object 1x1_Piece.stl id:6 copy 0
G1 X163.809 Y90.581 F9000
G1 E5 F2400
;TYPE:Perimeter
;WIDTH:0.419999
G1 F1200
G1 X171.431 Y90.581 E.23898
G1 X171.431 Y94.392 E.11949
G1 X171.431 Y98.203 E.11949
G1 X163.809 Y98.203 E.23898
G1 X163.809 Y90.641 E.2371
G1 X163.809 Y90.641 F9000
G1 X163.432 Y90.204
G1 F1200
G1 X171.808 Y90.204 E.26262
G1 X171.808 Y94.392 E.13131
G1 X171.808 Y98.58 E.13131
G1 X163.432 Y98.58 E.26262
G1 X163.432 Y90.264 E.26074
G1 X163.432 Y90.264 F9000
G1 X163.055 Y89.827
;TYPE:External perimeter
G1 F1200
G1 X172.185 Y89.827 E.28626
G1 X172.185 Y94.392 E.14313
G1 X172.185 Y98.957 E.14313
G1 X163.055 Y98.957 E.28626
G1 X163.055 Y89.887 E.28438
G1 E-3.5 F3600
;WIPE_START
G1 F7200
G1 X163.055 Y89.827 E-.0285
G1 X166.153 Y89.827 E-1.4715
;WIPE_END
G1 X171.31 Y91.488 F9000
G1 E5 F2400
;TYPE:Solid infill
;WIDTH:0.431465
G1 F1200
G1 X170.693 Y90.872 E.02817
G1 X170.144 Y90.872 E.01774
G1 X171.14 Y91.868 E.04551
G1 X171.14 Y92.418 E.01777
G1 X169.594 Y90.872 E.07064
G1 X169.045 Y90.872 E.01774
G1 X171.14 Y92.967 E.09572
G1 X171.14 Y93.517 E.01777
G1 X168.495 Y90.872 E.12085
G1 X167.946 Y90.872 E.01774
G1 X171.14 Y94.066 E.14593
G1 X171.14 Y94.616 E.01777
G1 X167.396 Y90.872 E.17106
G1 X166.847 Y90.872 E.01774
G1 X171.14 Y95.165 E.19615
G1 X171.14 Y95.715 E.01777
G1 X166.297 Y90.872 E.22128
G1 X165.748 Y90.872 E.01774
G1 X171.14 Y96.264 E.24636
